X:51
T:Steam Packet Hornpipe. JGi.051
M:2/4
L:1/8
Q:1/4=90
S:Joshua Gibbons MS,1823,Tealby,Lincs.
R:.hornpipe
O:Tealby,Lincolnshire
Z:VMP/R.Greig, 2009
K:G
d2|gb/g/ dg/d/|Bd/B/ GB/G/|Ec/A/ Fd/c/|c2Bd|
gb/g/ dg/d/|Bd/B/ GB/G/|Ec/A/ B/G/ A/F/|GGG:|
|:B/c/|d/^c/e/c/ d/B/G/B/|c/B/c/d/ c/A/F/A/|G/A/B/c/ d/e/f/g/|f/g/a/f/ d(B/c/)|
d/^c/e/c/ d/B/G/d/|c/B/c/B/ c/A/F/A/|G/B/d/g/ e/c/A/F/|GGG:|

